packages/ui-icons/src/Basic/32/Health_32.svg

<svg xmlns="http://www.w3.org/2000/svg" viewBox="0 0 40 40"><path d="M26 4H14v10H4v12h10v10h12V26h10V14H26Zm8 12v8H24v10h-8V24H6v-8h10V6h8v10Z"/></svg>

<svg id="Ready" xmlns="http://www.w3.org/2000/svg" viewBox="0 0 40 40"><title>Megaicons_work_32_1.8_cp</title><path d="M26,4H14V14H4V26H14V36H26V26H36V14H26Zm8,12v8H24V34H16V24H6V16H16V6h8V16Z"/></svg>
